src/assets/icons/os/heart.svg

<?xml version="1.0" encoding="iso-8859-1"?>
<!-- Generator: Adobe Illustrator 19.0.0, SVG Export Plug-In . SVG Version: 6.00 Build 0)  -->
<svg version="1.1" id="Capa_1" xmlns="http://www.w3.org/2000/svg" xmlns:xlink="http://www.w3.org/1999/xlink" x="0px" y="0px"
	 viewBox="0 0 485 485" style="enable-background:new 0 0 485 485;" xml:space="preserve">
<path fill="#FFFFFF" d="M343.611,22.543c-22.614,0-44.227,5.184-64.238,15.409c-13.622,6.959-26.135,16.205-36.873,27.175
	c-10.738-10.97-23.251-20.216-36.873-27.175c-20.012-10.225-41.625-15.409-64.239-15.409C63.427,22.543,0,85.97,0,163.932
	c0,55.219,29.163,113.866,86.678,174.314c48.022,50.471,106.816,92.543,147.681,118.95l8.141,5.261l8.141-5.261
	c40.865-26.406,99.659-68.479,147.681-118.95C455.837,277.798,485,219.151,485,163.932C485,85.97,421.573,22.543,343.611,22.543z"/>
<g>
</g>
<g>
</g>
<g>
</g>
<g>
</g>
<g>
</g>
<g>
</g>
<g>
</g>
<g>
</g>
<g>
</g>
<g>
</g>
<g>
</g>
<g>
</g>
<g>
</g>
<g>
</g>
<g>
</g>
</svg>

<svg width="485" height="485" viewBox="0 0 485 485" fill="none" xmlns="http://www.w3.org/2000/svg">
<path d="M343.611 22.543C320.997 22.543 299.384 27.727 279.373 37.952C265.751 44.911 253.238 54.157 242.5 65.127C231.762 54.157 219.249 44.911 205.627 37.952C185.615 27.727 164.002 22.543 141.388 22.543C63.427 22.543 0 85.97 0 163.932C0 219.151 29.163 277.798 86.678 338.246C134.7 388.717 193.494 430.789 234.359 457.196L242.5 462.457L250.641 457.196C291.506 430.79 350.3 388.717 398.322 338.246C455.837 277.798 485 219.151 485 163.932C485 85.97 421.573 22.543 343.611 22.543Z" fill="black"/>
</svg>
